build/category/CubeSolid.svg

<svg xmlns="http://www.w3.org/2000/svg" fill="none" viewBox="0 0 24 24" focusable="false"><path d="M0 0H24V24H0z"/><path fill="#74767B" fill-rule="evenodd" d="M13.1865 4.25165C12.4182 3.91543 11.5443 3.91615 10.7766 4.25361L5.09863 6.74944C4.85938 6.8546 4.85966 7.19415 5.09909 7.29891L11.4613 10.0828C11.7929 10.2279 12.1701 10.2282 12.502 10.0835L18.8904 7.29777C19.1303 7.19314 19.1305 6.85289 18.8907 6.74794L13.1865 4.25165ZM4.97866 8.65994C4.5164 8.45934 4 8.79817 4 9.30208L4 15.565C4 16.7568 4.70553 17.8357 5.79743 18.3134L10.3655 20.3122C10.828 20.5145 11.3461 20.1757 11.3461 19.6709L11.3461 12.2761C11.3461 11.7582 11.0387 11.2897 10.5636 11.0835L4.97866 8.65994ZM20 9.30214C20 8.79823 19.4836 8.4594 19.0213 8.66L13.4364 11.0836C12.9613 11.2898 12.6539 11.7583 12.6539 12.2762L12.6539 19.6709C12.6539 20.1757 13.172 20.5146 13.6345 20.3122L18.2026 18.3135C19.2945 17.8357 20 16.7569 20 15.5651L20 9.30214Z"/></svg>

<svg xmlns="http://www.w3.org/2000/svg" fill="none" viewBox="0 0 24 24" focusable="false"><path fill="#74767B" fill-rule="evenodd" d="M13.18 4.25c-.77-.34-1.64-.34-2.41 0L5.09 6.74c-.24.11-.24.45 0 .55l6.37 2.79c.33.14.7.14 1.04 0l6.39-2.79c.24-.1.24-.44 0-.55zM4 9.3c0-.51.51-.85.97-.65l5.59 2.43c.47.2.78.67.78 1.19v7.4c0 .5-.52.84-.98.64l-4.57-2A3 3 0 0 1 4 15.56zm16 0c0-.51-.52-.85-.98-.64l-5.59 2.42c-.47.2-.78.67-.78 1.19v7.4c0 .5.52.84.98.64l4.57-2c1.09-.48 1.8-1.56 1.8-2.75z"/></svg>
